public/flags/ru.svg

<svg width="51" height="51" viewBox="0 0 51 51" fill="none" xmlns="http://www.w3.org/2000/svg">
<g clip-path="url(#clip0_1_1408)">
<path d="M50.3438 19.5656H0.343872V9.50812C0.343872 9.03205 0.729906 8.64601 1.20598 8.64601H49.4818C49.9578 8.64601 50.3439 9.03205 50.3439 9.50812L50.3438 19.5656Z" fill="#F5F5F5"/>
<path d="M49.4817 41.4046H1.20598C0.729906 41.4046 0.343872 41.0186 0.343872 40.5425V30.4851H50.3438V40.5425C50.3438 41.0187 49.9577 41.4046 49.4817 41.4046Z" fill="#FF4B55"/>
<path d="M50.3438 19.5654H0.343872V30.4843H50.3438V19.5654Z" fill="#41479B"/>
</g>
<defs>
<clipPath id="clip0_1_1408">
<rect width="50" height="50" fill="white" transform="translate(0.34375 0.0253906)"/>
</clipPath>
</defs>
</svg>

<svg xmlns="http://www.w3.org/2000/svg" width="51" height="51" fill="none"><g clip-path="url(#a)"><path fill="#F5F5F5" d="M50.344 19.566h-50V9.508c0-.476.386-.862.862-.862h48.276c.476 0 .862.386.862.862z"/><path fill="#FF4B55" d="M49.482 41.405H1.206a.86.86 0 0 1-.862-.863V30.485h50v10.057a.86.86 0 0 1-.862.863"/><path fill="#41479B" d="M50.344 19.565h-50v10.92h50z"/></g><defs><clipPath id="a"><path fill="#fff" d="M.344.025h50v50h-50z"/></clipPath></defs></svg>
